ix/message-favorite_bold.svg

<svg viewBox="0 0 24 24" fill="none" xmlns="http://www.w3.org/2000/svg" height="1em" width="1em">
  <path d="M20.97 1h-2.94C16.76 1 16 1.76 16 3.03v2.94C16 7.24 16.76 8 18.03 8h2.94C22.24 8 23 7.24 23 5.97V3.03C23 1.76 22.24 1 20.97 1Zm.64 3.68c-.37 1.18-1.66 1.82-2.11 1.82-.45 0-1.73-.62-2.11-1.82-.06-.18-.09-.38-.09-.57 0-.65.33-1.32 1.02-1.54.41-.13.85-.06 1.16.2.32-.25.76-.33 1.18-.2.92.29 1.21 1.32.95 2.11Z" fill="#292D32"/>
  <path d="M18.03 9.5a3.53 3.53 0 0 1-3.53-3.53V3c0-.55-.45-1-1-1H7C4.24 2 2 4.23 2 6.98v6.97c0 2.76 2.24 5 5 5h1.5c.28 0 .64.18.8.4l1.5 1.99c.66.88 1.74.88 2.4 0l1.5-1.99c.19-.25.49-.4.8-.4h1.51c2.76 0 4.99-2.23 4.99-4.99V10.5c0-.55-.45-1-1-1h-2.97ZM8 12c-.56 0-1-.45-1-1s.44-1 1-1c.55 0 1 .45 1 1s-.44 1-1 1Zm4 0c-.56 0-1-.45-1-1s.44-1 1-1c.55 0 1 .45 1 1s-.44 1-1 1Z" fill="#292D32"/>
</svg>

<svg viewBox="0 0 24 24" fill="none" xmlns="http://www.w3.org/2000/svg" height="1em" width="1em">
  <path d="M20.97 1H18.03C16.76 1 16 1.76 16 3.03V5.97C16 7.24 16.76 8 18.03 8H20.97C22.24 8 23 7.24 23 5.97V3.03C23 1.76 22.24 1 20.97 1ZM21.61 4.68C21.24 5.86 19.95 6.5 19.5 6.5C19.05 6.5 17.77 5.88 17.39 4.68C17.33 4.5 17.3 4.3 17.3 4.11C17.3 3.46 17.63 2.79 18.32 2.57C18.73 2.44 19.17 2.51 19.48 2.77C19.8 2.52 20.24 2.44 20.66 2.57C21.58 2.86 21.87 3.89 21.61 4.68Z" fill="#292D32"/>
  <path d="M18.03 9.5C16.08 9.5 14.5 7.92 14.5 5.97V3C14.5 2.45 14.05 2 13.5 2H7C4.24 2 2 4.23 2 6.98V13.95C2 16.71 4.24 18.95 7 18.95H8.5C8.78 18.95 9.14 19.13 9.3 19.35L10.8 21.34C11.46 22.22 12.54 22.22 13.2 21.34L14.7 19.35C14.89 19.1 15.19 18.95 15.5 18.95H17.01C19.77 18.95 22 16.72 22 13.96V10.5C22 9.95 21.55 9.5 21 9.5H18.03ZM8 12C7.44 12 7 11.55 7 11C7 10.45 7.44 10 8 10C8.55 10 9 10.45 9 11C9 11.55 8.56 12 8 12ZM12 12C11.44 12 11 11.55 11 11C11 10.45 11.44 10 12 10C12.55 10 13 10.45 13 11C13 11.55 12.56 12 12 12Z" fill="#292D32"/>
</svg>
